docs/assets/icons/switch.svg

<?xml version="1.0" encoding="UTF-8" standalone="no"?>
<svg
   id="mdi-switch"
   viewBox="0 0 24 24"
   version="1.1"
   sodipodi:docname="switch.svg"
   inkscape:version="1.4.3 (0d15f75042, 2025-12-25)"
   xmlns:inkscape="http://www.inkscape.org/namespaces/inkscape"
   xmlns:sodipodi="http://sodipodi.sourceforge.net/DTD/sodipodi-0.dtd"
   xmlns="http://www.w3.org/2000/svg"
   xmlns:svg="http://www.w3.org/2000/svg">
  <defs
     id="defs1" />
  <sodipodi:namedview
     id="namedview1"
     pagecolor="#505050"
     bordercolor="#ffffff"
     borderopacity="1"
     inkscape:showpageshadow="0"
     inkscape:pageopacity="0"
     inkscape:pagecheckerboard="1"
     inkscape:deskcolor="#505050"
     inkscape:zoom="32"
     inkscape:cx="14.234375"
     inkscape:cy="8.25"
     inkscape:window-width="2560"
     inkscape:window-height="1368"
     inkscape:window-x="0"
     inkscape:window-y="0"
     inkscape:window-maximized="1"
     inkscape:current-layer="mdi-switch" />
  <g
     id="g4"
     transform="matrix(1.1708744,0,0,1.1708744,-2.0504928,-1.9504928)">
    <path
       id="path3"
       d="m 2,19 v 2 h 7 v -2 z m 13,0 v 2 h 7 v -2 z"
       style="fill:#4cae4f;fill-opacity:1"
       inkscape:label="wire-lower" />
    <path
       d="m 13,18.066291 h -2 v -2.10767 h 2 v 2.10767"
       id="path4"
       sodipodi:nodetypes="ccccc"
       style="fill:#4cae4f;fill-opacity:1;stroke-width:1.02656"
       inkscape:label="wire-upper" />
    <path
       d="M 8,16 C 7.4477153,16 7,15.552285 7,15 V 3 C 7,2.4477153 7.4477153,2 8,2 h 8 c 0.552285,0 1,0.4477153 1,1 v 12 c 0,0.552285 -0.447715,1 -1,1 H 12 Z M 13,6 h 1 V 4 H 13 V 6 M 9,4 v 2 h 2 V 4 H 9 m 0,4 v 2 h 2 V 8 H 9 m 0,4 v 2 h 2 v -2 z"
       id="path1"
       sodipodi:nodetypes="sssssssscscccccccccccccccccccc"
       inkscape:label="switch"
       style="fill:#0091eb;fill-opacity:1;stroke:#4cae4f;stroke-width:0.427031;stroke-linecap:round;stroke-linejoin:round;stroke-dasharray:none;stroke-opacity:1" />
    <path
       d="m 13,18 h 1 c 0.552285,0 1,0.447715 1,1 v 2 c 0,0.552285 -0.447715,1 -1,1 H 10 C 9.4477153,22 9,21.552285 9,21 v -2 c 0,-0.552285 0.4477153,-1 1,-1 h 1 2"
       id="path2"
       sodipodi:nodetypes="csccssccscc"
       inkscape:label="box"
       style="display:inline;fill:#0091eb;fill-opacity:1;stroke:#4cae4f;stroke-width:0.12810939;stroke-dasharray:none;stroke-opacity:1" />
  </g>
</svg>

<?xml version="1.0" encoding="UTF-8"?>
<svg version="1.1" viewBox="0 0 24 24" xmlns="http://www.w3.org/2000/svg"><g transform="matrix(1.1709 0 0 1.1709 -2.0505 -1.9505)"><path d="m2 19v2h7v-2zm13 0v2h7v-2z" fill="#4cae4f"/><path d="m13 18.066h-2v-2.1077h2v2.1077" fill="#4cae4f" stroke-width="1.0266"/><path d="m8 16c-.55228 0-1-.44772-1-1v-12c0-.55228.44772-1 1-1h8c.55228 0 1 .44772 1 1v12c0 .55228-.44772 1-1 1h-4zm5-10h1v-2h-1v2m-4-2v2h2v-2h-2m0 4v2h2v-2h-2m0 4v2h2v-2z" fill="#0091eb" stroke="#4cae4f" stroke-linecap="round" stroke-linejoin="round" stroke-width=".34163"/><path d="m13 18h1c.55228 0 1 .44772 1 1v2c0 .55228-.44772 1-1 1h-4c-.55228 0-1-.44772-1-1v-2c0-.55228.44772-1 1-1h3" fill="#0091eb"/></g></svg>
